X:16
T:Castle Dangerous
M:3/4
K:HP
|:{Gdc}d3/2e/2 {gfg}f2{ag}a2 |{fg}f1d1 {g}G2{d}B2|{g}d3/2B/2 {G}A2{Gdc}d2|{g}f1a1{ef}e2-e2|!
["2nd time 2nd part"!rbstop!x {Gdc}d3/2e/2 {gfg}f2{ag}a2 |{fg}f1d1{g}G2{d}B2|{g}d3/2B/2 {G}A2{gfg}f2|{gf}g1c1{Gdc}d2{gdG}d2:|!
|:{g}f3/2g/2{ag}a2{fg}f1a1   |{fg}f1d1{g}G2{d}B2|{g}d3/2B/2{G}A2{Gdc}d2|{g}f1a1{ef}e2-e2|!
["1st time 2nd part"!rbstop!x {g}f3/2g/2{ag}a2{fg}f1a1    |{fg}f1d1{g}G2{d}B2|{g}d3/2B/2{G}A2{gfg}f2|{gf}g1c1{Gdc}d2{gdG}d2:|!

